src/assets/images/icons/social/linkedin.svg

<svg fill="none" viewBox="0 0 20 20" xmlns="http://www.w3.org/2000/svg"><path d="m20 12.0983v7.1781h-4.2866v-6.6973c0-1.6825-.6201-2.83065-2.1717-2.83065-1.1845 0-1.8893.77385-2.1994 1.52235-.1131.2676-.1422.64-.1422 1.0146v6.991h-4.28812s.05775-11.34308 0-12.51831h4.28772v1.77442c-.0087.01327-.02.02758-.0282.04044h.0282v-.04044c.5696-.85176 1.587-2.06851 3.8641-2.06851 2.8212-.00005 4.9362 1.78918 4.9362 5.6343zm-17.57354-11.374667c-1.466954 0-2.42646.934087-2.42646 2.162447 0 1.20159.931746 2.16403 2.36954 2.16403h.02864c1.49537 0 2.42534-.96226 2.42534-2.16403-.02817-1.22836-.92997-2.162447-2.39706-2.162447zm-2.171785 18.552767h4.286465v-12.51831h-4.286465z" fill="#f9f9fb"/></svg>

<svg viewBox="0 0 20 20" fill="none" xmlns="http://www.w3.org/2000/svg">
<path id="Vector" d="M20 12.0983V19.2764H15.7134V12.5791C15.7134 10.8966 15.0933 9.74845 13.5417 9.74845C12.3572 9.74845 11.6524 10.5223 11.3423 11.2708C11.2292 11.5384 11.2001 11.9108 11.2001 12.2854V19.2764H6.91198C6.91198 19.2764 6.96973 7.93332 6.91198 6.75809H11.1997V8.53251C11.191 8.54578 11.1797 8.56009 11.1715 8.57295H11.1997V8.53251C11.7693 7.68075 12.7867 6.464 15.0638 6.464C17.885 6.46395 20 8.25318 20 12.0983ZM2.42646 0.723633C0.959506 0.723633 0 1.65772 0 2.88608C0 4.08767 0.931746 5.05011 2.36954 5.05011H2.39818C3.89355 5.05011 4.82352 4.08785 4.82352 2.88608C4.79535 1.65772 3.89355 0.723633 2.42646 0.723633ZM0.254675 19.2764H4.54114V6.75809H0.254675V19.2764Z" fill="#F9F9FB"/>
</svg>
